X:1
T:Petite folle
T:Petite folle
T:Jean de Castro
T:Source : Livre de chansons à 3 parties---Paris---A.le Roy & R.Ballard---1575. Editor : André Vierendeels 28/09/15).
T:Notes : Original clefs : G2, C2, C3 Editorial accidentals above the staff "duite" = vite ? "luitte" = lutte ?
C:Jean de Castro
%%score [ 1 2 3 ]
L:1/8
Q:1/4=100
M:2/2
K:F
V:1 treble nm="Superius" snm="S"
V:2 treble nm="Altus" snm="A"
V:3 treble-8 nm="Tenor" snm="T"
V:1
 z8 | c4 f2 f2 | e4 c4 | z8 | F4 B2 B2 | A4 F4 | f6 e2 | d4 c4 | =B2 c3 B/A/ B2 | c4 z2 G2 | %10
w: |Pe- ti- te|fol- le,||pe- ti- te|fol- le,-|es- tes|vous pas|con- ten- * * *|te de|
 A2 A2 G4 | z2 c2 d2 d2 | c6 A2 | B2 G2 G2 F2 | G4 A2 f2 | f2 e2 f4 | z4 c4 | c2 B2 c4 | z2 c4 c2 | %19
w: me bai- ser,|de me bai-|ser cinq|cens fois tout- de|sui- te, a-|pro- cher moy,|a-|pro- * moy|ces- te|
 A2 d4 c2 | =B4 c4 | z4 G4 | A2 A2 G4 | z2 c2 d2 d2 | c6 A2 | B2 G2 G2 F2 | G4 A2 c2 | %27
w: bou- che si|gen- te,|et|ces beaux bras,|et ces beaux|bras tant|qu'a- vec vous je|luit- te, en|
 d2 e2 f2 e2 | c2 f2 f2 e2 | d4 c4 | z2 c2 A2 B2 | G2 c2 d2 =B2 | c4 z2 G2 | c2 c2 A2 f2 | %34
w: bon- ne foy, vous|es- tes la plus|dui- te|à m'em- bras-|ser, à m'em- bras-|ser à-|m'em- bras- ser que|
 f2 e2 d2 c2 | d4 c4 | z4 A4 | F8 | G8 | A4 c4 | d4 c4- | c4 =B4 | z4 c4 | F2 G2 A2 B2 | c4 F4- | %45
w: trou- vay en ma|vi- e,|mon|pe-|tit|coeur, mon|pe- tit|_ coeur,|ne|pre- nez pas la|fui- te,|
 F4 c4 | c6 B2 | A2 A2 G4 | A4 f4 | c4 d4 | c4 z2 =B2 | c4 d4 | c2 A2 B2 B2 | A4 f4 | d4 e4 | %55
w: _ ne|pre- nez|pas la fui-|te, en-|cor' un|coup, en-|cor' un|coup, en- cor' un|coup, en-|cor' un|
 f4 c4 | B4 G4 | A8 | z4 c2 d2 | e4 f4 | d4 d4 | d8 | c4 z4 | z4 A2 B2 | c2 c2 G4- | G4 A4 | G8 | %67
w: coup, en-|cor' un|coup,|bai- sez|moy, je|vous sup-|pli-|e,|bai- sez|moy, je vous|_ sup-|pli-|
 F8- | F8- | F8- | F8- | F8- | !fermata!F8 |] %73
w: e.|_|||||
V:2
 F4 B2 B2 | A4 F4 | z2 G2 A2 A2 | G4 E4 | z2 D2 D2 E2 | F4 C2 D2- | D2 B4 G2 | G4 C4 | D8 | %9
w: Pe- ti- te|fol- le,|pe- ti- te|fol- le,|pe- ti- te|fol- le, es-|* tes vous|pas con-|ten-|
 E3 C D2 E2 | F4 z2 E2 | D2 A2 B4 | G4 F4 | D2 E4 F2 | E4 F2 A2 | F2 G2 A2 D2 | A2 G2 A2 F2 | %17
w: te de me bai-|ser, de|me bai- ser|cinq cens|fois tout de|sui- te, a-|pro- chez moy,- a-|pro- chez moy, a-|
 D2 D2 C4 | z2 A4 G2 | F2 F4 E2 | D4 E4 | z2 E2 D2 E2 | F4 z2 E2 | D2 A2 B4 | G4 F4 | D2 E4 F2 | %26
w: pro- chez moy|ces- te|bou- che si|gen- te,|et ces beaux|bras, et|ces beaux bras|tant qu'a-|vec vous je|
 E4 F4 | z4 z2 G2 | A3 B c2 c2 | A2 B2 G2 F2 | G4 F4 | z2 E2 F2 G2 | C2 F2 E2 C2 | G2 A2 F4- | %34
w: luit- te,|en|bon- ne foy, vous|es- tes la plus|dui- te|à m'em- bras-|ser, à m'em- bras-|ser que trou-|
 F2 c2 B2 A2 | G4 A4 | z4 C4 | D8- | D4 E4 | F4 C4 | F8 | D8 | C8 | c4 c2 B2 | A2 G2 A4 | D4 A4 | %46
w: * vay en ma|vi- e,|mon|pe-|* tit|coeur, mon|pe-|tit|coeur,|ne pre- nez|pas la fui-|te, ne|
 A6 G2 | F2 F2 E4 | F4 A4 | A4 B4 | A2 F2 D2 G2 | A4 z2 F2 | F4 E4 | F4 A4 | B4 G4 | F4 A4 | %56
w: pre- nez|pas la fui-|te, en-|cor' un|coup, en- cor' un|coup, en-|cor' un|coup, en-|cor' un|coup, en-|
 G2 F2 F2 E2 | F4 A2 B2 | c4 A4 | G4 F4 | B6 AG | F4 G4 | A4 F2 G2 | A4 F4 | G4 E4- | E4 F4- | %66
w: cor' un coup, en-|cor' un coup,|bai- sez|moy, je|vous _ _|sup- pli-|e, bai- sez|moy, je|vous sup-|* pli-|
 F4 E4 | z4 D2 E2 | F4 D2 E2 | F4 C2 C2 | D2 B,2 C2 C2 | D8 | !fermata!C8 |] %73
w: * e,|bai- sez|moy, bai- sez|moy bai- sez|moy, je vous sup-|pli-|e.|
V:3
 z8 | z8 | c4 f2 f2 | e4 c4 | z2 B2 G2 G2 | F6 B2- | B2 B2 B2 c2 | G4 A4 | G8 | c2 c2 =B2 c2 | %10
w: ||Pe- ti- te|fol- le,|pe- ti- te|fol- le,|_ es- tes vous|pas con-|ten-|te de me bai-|
 F4 z2 c2 | B2 A2 G4 | c4 F4 | B2 c4 d2 | c4 F4 | z4 z2 f2 | f2 e2 f2 F2 | G2 G2 A4 | f6 c2 | %19
w: ser, de|me bai- ser|cinq cens|fois tout de|sui- te,|a-|pro- chez moy, a-|pro- chez moy|ces- te|
 d2 B4 c2 | G4 c4 | z2 c2 =B2 c2 | F4 z2 c2 | B2 A2 G4 | c4 F4 | B2 c4 d2 | c4 F4 | z2 c2 d2 e2 | %28
w: bou- che si|gen- te,|et ces beaux|bras, et|ces beaux bras|tant qu'a-|vec vous je|luit- te,|en bon- ne|
 f2 f2 f2 c2 | d2 B2 c2 F2 | z2 c2 d2 B2 | c4 z2 G2 | A2 F2 c4- | c2 f4 d2- | d2 c2 d2 A2 | B4 A4 | %36
w: foy, vous es- tes|la plus dui- te|à m'em- bras-|ser, à|m'em- bras- ser|_ que trou-|* vay en ma|vi- e,|
 z4 F4 | B8 | G8 | F4 F4 | F8 | G8 | A8 | z4 f4 | f2 e2 d2 c2 | B4 A4 | F4 F2 G2 | A2 B2 c4 | F8 | %49
w: mon|pe-|tit|coeur, mon|pe-|tit|coeur,|ne|pre- nez pas la|fui- te,|ne pre- nez|pas la fui-|te,|
 z4 B4 | F4 G4 | F4 B4 | F4 G4 | F8 | z8 | z4 f4 | B4 c4 | F4 f2 g2 | a4 f4 | c4 d4 | B8- | B8 | %62
w: en-|cor' un|coup, en-|cor' un|coup,||en-|cor' un|coup, bai- sez|moy je|vous sup-|pli-||
 A4 d2 e2 | f4 d4 | c8- | c4 F4 | c8 | F4 B2 c2 | d4 B2 c2 | d4 A4 | B4 F4 | B8 | !fermata!F8 |] %73
w: e, bai- sez|moy, je|vous|_ sup-|pli-|e, bai- sez|moy, bai- sez|moy ja|vous sup-|pli-|e.|

